X: 10221
Q:
M: 3/4
L: 1/8
K: Bm
(AG) | F3 G A2 | A f3 e2 | d2 B2 B2 | B4 AG | F3 G A2 |
a4 fe | d2 B2 c2 | d4 d e | f3 g f2 |
e2 d2 e2 | f3 d B2 | B4 |] A G |
d e | f3 e f2 | a f3 e2 | d2 B2 c2 | d4 (de) |
f3 g f2 | e2 d2 e2 | f3 d B2 | B4 |]



